packages/flat-components/src/components/ChatPanel/ChatTypeBox/icons/ban-chat.svg

<?xml version="1.0" encoding="UTF-8"?>
<svg width="22px" height="22px" viewBox="0 0 22 22" version="1.1" xmlns="http://www.w3.org/2000/svg" xmlns:xlink="http://www.w3.org/1999/xlink">
    <title>send备份</title>
    <g id="白板" stroke="none" stroke-width="1" fill="none" fill-rule="evenodd">
        <g id="Flat-规范" transform="translate(-952.000000, -3937.000000)">
            <g id="send备份" transform="translate(952.000000, 3937.000000)">
                <rect id="矩形备份-16" fill="#FFFFFF" opacity="0.01" x="0" y="0" width="22" height="22"></rect>
                <path d="M16,12.5 C17.9329966,12.5 19.5,14.0670034 19.5,16 C19.5,17.9329966 17.9329966,19.5 16,19.5 C14.0670034,19.5 12.5,17.9329966 12.5,16 C12.5,14.0670034 14.0670034,12.5 16,12.5 Z M13.9137229,14.6220231 C13.6522538,15.0170955 13.5,15.4907674 13.5,16 C13.5,17.3807119 14.6192881,18.5 16,18.5 C16.5092326,18.5 16.9829045,18.3477462 17.3779769,18.0862771 Z M16,13.5 C15.4907674,13.5 15.0170955,13.6522538 14.6220231,13.9137229 L18.0862771,17.3779769 C18.3477462,16.9829045 18.5,16.5092326 18.5,16 C18.5,14.6192881 17.3807119,13.5 16,13.5 Z" id="形状结合" fill="#7A7B7C" fill-rule="nonzero"></path>
                <path d="M15,2.5 C16.3807119,2.5 17.5,3.61928813 17.5,5 L17.5,5 L17.5010919,11.7564447 C17.1825716,11.643771 16.847583,11.5659432 16.5007074,11.5275426 L16.5,5 C16.5,4.17157288 15.8284271,3.5 15,3.5 L15,3.5 L5,3.5 C4.17157288,3.5 3.5,4.17157288 3.5,5 L3.5,5 L3.5,13 C3.5,13.8284271 4.17157288,14.5 5,14.5 L5,14.5 L6,14.5 C6.27614237,14.5 6.5,14.7238576 6.5,15 L6.5,15 L6.5,16.792 L8.64644661,14.6464466 C8.72146116,14.5714321 8.81785732,14.522715 8.92131063,14.5062287 L8.92131063,14.5062287 L9,14.5 L11.7560892,14.4999135 C11.6434985,14.8184407 11.5657527,15.1534286 11.5274316,15.500297 L9.206,15.5 L6.35355339,18.3535534 C6.05956979,18.647537 5.57081573,18.4728055 5.50695512,18.086032 L5.50695512,18.086032 L5.5,18 L5.5,15.5 L5,15.5 C3.6745166,15.5 2.58996133,14.4684641 2.50531768,13.1643757 L2.50531768,13.1643757 L2.5,13 L2.5,5 C2.5,3.61928813 3.61928813,2.5 5,2.5 L5,2.5 Z" id="形状结合" fill="#7A7B7C" fill-rule="nonzero"></path>
            </g>
        </g>
    </g>
</svg>

<svg xmlns="http://www.w3.org/2000/svg" viewBox="0 0 22 22">
  <g fill="none" fill-rule="evenodd">
    <path fill="#FFF" d="M0 0h22v22H0z" opacity=".01"/>
    <path fill="#7A7B7C" fill-rule="nonzero" d="M16 12.5a3.5 3.5 0 110 7 3.5 3.5 0 010-7zm-2.086 2.122a2.5 2.5 0 003.464 3.464zM16 13.5c-.51 0-.983.152-1.378.414l3.464 3.464A2.5 2.5 0 0016 13.5z"/>
    <path fill="#7A7B7C" fill-rule="nonzero" d="M15 2.5A2.5 2.5 0 0117.5 5l.001 6.756a4.474 4.474 0 00-1-.228L16.5 5A1.5 1.5 0 0015 3.5H5A1.5 1.5 0 003.5 5v8A1.5 1.5 0 005 14.5h1a.5.5 0 01.5.5v1.792l2.146-2.146a.5.5 0 01.275-.14L9 14.5h2.756c-.113.318-.19.653-.229 1H9.206l-2.852 2.854a.5.5 0 01-.847-.268L5.5 18v-2.5H5a2.5 2.5 0 01-2.495-2.336L2.5 13V5A2.5 2.5 0 015 2.5z"/>
  </g>
</svg>
